public/logos/WA.svg

<?xml version="1.0" encoding="UTF-8"?>
<svg xmlns="http://www.w3.org/2000/svg" xmlns:xlink="http://www.w3.org/1999/xlink" width="176pt" height="35.6pt" viewBox="0 0 176 35.6" version="1.1">
<defs>
<clipPath id="clip1">
  <path d="M 132 20 L 143 20 L 143 35.601562 L 132 35.601562 Z M 132 20 "/>
</clipPath>
<clipPath id="clip2">
  <path d="M 145 20 L 156 20 L 156 35.601562 L 145 35.601562 Z M 145 20 "/>
</clipPath>
<clipPath id="clip3">
  <path d="M 93 20 L 104 20 L 104 35.601562 L 93 35.601562 Z M 93 20 "/>
</clipPath>
</defs>
<g id="surface1">
<path style=" stroke:none;fill-rule:nonzero;fill:rgb(35.281372%,62.957764%,86.505127%);fill-opacity:1;" d="M 0 17.871094 C 1.667969 17.871094 3.339844 17.871094 5.105469 17.871094 C 5.300781 19.421875 5.089844 20.925781 5.253906 22.601562 C 5.59375 22.320312 5.824219 22.152344 6.027344 21.953125 C 7.1875 20.824219 8.355469 19.699219 9.488281 18.542969 C 9.96875 18.050781 10.488281 17.808594 11.1875 17.832031 C 12.523438 17.871094 13.859375 17.84375 15.246094 17.9375 C 13.425781 19.988281 11.4375 21.832031 9.511719 23.863281 C 11.851562 26.367188 14.324219 28.636719 16.722656 30.984375 C 16.785156 30.964844 16.851562 30.945312 16.914062 30.921875 C 16.914062 26.621094 16.914062 22.320312 16.914062 18.066406 C 17.652344 17.804688 21.136719 17.753906 22.1875 17.96875 C 22.214844 18.289062 22.269531 18.640625 22.273438 18.988281 C 22.277344 21.585938 22.273438 24.179688 22.277344 26.777344 C 22.277344 27.105469 22.304688 27.4375 22.328125 27.886719 C 25.089844 28.035156 27.8125 27.863281 30.605469 27.988281 C 30.605469 29.132812 30.605469 30.199219 30.605469 31.257812 C 29.972656 31.476562 11.921875 31.574219 10.085938 31.359375 C 8.574219 29.855469 7 28.285156 5.425781 26.71875 C 5.355469 26.734375 5.289062 26.753906 5.21875 26.773438 C 5.21875 28.28125 5.21875 29.789062 5.21875 31.414062 C 3.382812 31.425781 1.691406 31.4375 0 31.449219 C 0 26.921875 0 22.394531 0 17.871094 "/>
<path style=" stroke:none;fill-rule:nonzero;fill:rgb(35.281372%,62.957764%,86.505127%);fill-opacity:1;" d="M 176 21.894531 C 174.210938 21.96875 174.046875 22.003906 173.40625 22.472656 C 173.003906 25.527344 172.960938 28.640625 172.980469 31.839844 C 172.304688 31.839844 171.71875 31.839844 171.054688 31.839844 C 171.054688 28 171.054688 24.203125 171.054688 20.382812 C 172.730469 20.382812 174.363281 20.382812 176 20.382812 C 176 20.886719 176 21.390625 176 21.894531 "/>
<path style=" stroke:none;fill-rule:nonzero;fill:rgb(35.281372%,62.957764%,86.505127%);fill-opacity:1;" d="M 49.042969 22.25 C 47.964844 25.28125 46.882812 28.308594 45.789062 31.375 C 44.144531 31.375 42.566406 31.375 40.851562 31.375 C 39.792969 28.394531 38.722656 25.398438 37.65625 22.398438 C 37.574219 22.414062 37.492188 22.429688 37.410156 22.445312 C 37.410156 25.382812 37.410156 28.320312 37.410156 31.378906 C 35.648438 31.480469 33.992188 31.441406 32.371094 31.40625 C 32.148438 30.710938 32.089844 19.132812 32.269531 18.046875 C 32.84375 17.804688 39.542969 17.726562 40.789062 17.976562 C 41.574219 20.242188 42.382812 22.574219 43.191406 24.90625 C 43.261719 24.914062 43.332031 24.921875 43.402344 24.929688 C 44.226562 22.613281 45.050781 20.296875 45.917969 17.863281 C 48.738281 17.820312 51.535156 17.851562 54.410156 17.847656 C 54.410156 22.40625 54.410156 26.832031 54.410156 31.394531 C 52.742188 31.472656 51.089844 31.445312 49.363281 31.40625 C 49.1875 29.804688 49.304688 28.277344 49.28125 26.753906 C 49.261719 25.265625 49.277344 23.773438 49.277344 22.285156 C 49.199219 22.273438 49.121094 22.261719 49.042969 22.25 "/>
<path style=" stroke:none;fill-rule:nonzero;fill:rgb(35.281372%,62.957764%,86.505127%);fill-opacity:1;" d="M 16.984375 14.757812 C 16.984375 13.59375 16.984375 12.492188 16.984375 11.292969 C 17.289062 11.257812 17.578125 11.199219 17.871094 11.199219 C 23.980469 11.191406 30.09375 11.191406 36.203125 11.199219 C 36.554688 11.199219 36.90625 11.273438 37.324219 11.320312 C 37.324219 12.46875 37.324219 13.542969 37.324219 14.71875 C 37.03125 14.753906 36.738281 14.820312 36.449219 14.820312 C 30.253906 14.828125 24.058594 14.832031 17.867188 14.832031 C 17.59375 14.832031 17.324219 14.789062 16.984375 14.757812 "/>
<g clip-path="url(#clip1)" clip-rule="nonzero">
<path style=" stroke:none;fill-rule:nonzero;fill:rgb(35.281372%,62.957764%,86.505127%);fill-opacity:1;" d="M 134.328125 30.269531 C 135.414062 30.269531 136.386719 30.285156 137.359375 30.265625 C 138.449219 30.242188 139.304688 29.734375 139.851562 28.8125 C 140.847656 27.132812 140.894531 25.367188 140.117188 23.59375 C 139.765625 22.789062 139.164062 22.183594 138.269531 22.039062 C 137.5625 21.921875 136.832031 21.917969 136.109375 21.894531 C 135.535156 21.878906 134.964844 21.90625 134.328125 21.914062 C 134.328125 24.738281 134.328125 27.429688 134.328125 30.269531 Z M 134.398438 31.589844 C 134.398438 32.921875 134.398438 34.105469 134.398438 35.367188 C 133.636719 35.367188 133.019531 35.367188 132.332031 35.367188 C 132.332031 30.386719 132.332031 25.460938 132.332031 20.496094 C 132.550781 20.445312 132.734375 20.363281 132.914062 20.367188 C 134.8125 20.414062 136.710938 20.453125 138.605469 20.539062 C 140.078125 20.609375 141.117188 21.453125 141.824219 22.660156 C 142.976562 24.628906 143.019531 26.730469 142.117188 28.777344 C 141.34375 30.53125 139.8125 31.390625 137.941406 31.582031 C 137.140625 31.664062 136.324219 31.59375 135.515625 31.589844 C 135.210938 31.589844 134.910156 31.589844 134.398438 31.589844 "/>
</g>
<g clip-path="url(#clip2)" clip-rule="nonzero">
<path style=" stroke:none;fill-rule:nonzero;fill:rgb(35.281372%,62.957764%,86.505127%);fill-opacity:1;" d="M 147.195312 30.414062 C 148.558594 30.414062 149.757812 30.480469 150.941406 30.386719 C 151.675781 30.332031 152.28125 29.851562 152.699219 29.222656 C 153.789062 27.578125 153.796875 25.808594 153.164062 24.023438 C 152.914062 23.308594 152.429688 22.695312 151.683594 22.398438 C 150.285156 21.851562 148.851562 22.128906 147.351562 22.113281 C 147.078125 24.929688 147.222656 27.617188 147.195312 30.414062 Z M 145.453125 20.617188 C 146.964844 20.617188 148.4375 20.613281 149.910156 20.621094 C 150.300781 20.625 150.6875 20.714844 151.078125 20.710938 C 152.910156 20.699219 154.152344 21.664062 154.964844 23.179688 C 155.832031 24.804688 155.921875 26.550781 155.382812 28.304688 C 154.746094 30.378906 152.847656 31.761719 150.660156 31.789062 C 149.878906 31.800781 149.097656 31.78125 148.316406 31.785156 C 148.042969 31.785156 147.769531 31.8125 147.359375 31.832031 C 147.351562 32.488281 147.34375 33.089844 147.339844 33.691406 C 147.335938 34.292969 147.335938 34.902344 147.335938 35.570312 C 146.632812 35.570312 146.0625 35.570312 145.503906 35.570312 C 145.253906 34.9375 145.199219 21.625 145.453125 20.617188 "/>
</g>
<path style=" stroke:none;fill-rule:nonzero;fill:rgb(35.281372%,62.957764%,86.505127%);fill-opacity:1;" d="M 116.175781 31.234375 C 115.5625 31.234375 114.964844 31.234375 114.285156 31.234375 C 114.246094 30.828125 114.183594 30.476562 114.179688 30.125 C 114.167969 28.253906 114.125 26.382812 114.1875 24.511719 C 114.238281 22.949219 113.183594 21.972656 111.699219 22.039062 C 110.730469 22.082031 109.753906 22.046875 108.699219 22.046875 C 108.65625 22.453125 108.597656 22.773438 108.59375 23.09375 C 108.585938 25.46875 108.59375 27.84375 108.585938 30.21875 C 108.585938 30.542969 108.53125 30.867188 108.496094 31.246094 C 107.824219 31.246094 107.222656 31.246094 106.644531 31.246094 C 106.410156 30.554688 106.371094 17.699219 106.605469 16.761719 C 107.199219 16.761719 107.816406 16.761719 108.574219 16.761719 C 108.574219 17.933594 108.574219 19.0625 108.574219 20.175781 C 109.789062 20.246094 110.871094 20.269531 111.941406 20.386719 C 112.714844 20.472656 113.492188 20.617188 114.230469 20.851562 C 115.375 21.214844 116.09375 22.050781 116.144531 23.25 C 116.246094 25.757812 116.253906 28.273438 116.292969 30.78125 C 116.296875 30.914062 116.226562 31.042969 116.175781 31.234375 "/>
<path style=" stroke:none;fill-rule:nonzero;fill:rgb(35.281372%,62.957764%,86.505127%);fill-opacity:1;" d="M 159.765625 24.902344 C 160.558594 25.140625 165.566406 25.109375 166.1875 24.859375 C 166.316406 22.976562 164.628906 21.9375 162.960938 21.941406 C 161.046875 21.949219 159.644531 23.28125 159.765625 24.902344 Z M 166.886719 30.304688 C 166.980469 30.617188 167.058594 30.871094 167.164062 31.230469 C 166.703125 31.425781 166.316406 31.65625 165.902344 31.746094 C 164.472656 32.0625 163.019531 32.066406 161.585938 31.8125 C 159.101562 31.375 157.660156 29.527344 157.414062 27.03125 C 157.308594 25.964844 157.453125 24.914062 157.800781 23.898438 C 158.480469 21.917969 160.253906 20.597656 162.347656 20.535156 C 163.433594 20.5 164.511719 20.492188 165.546875 20.96875 C 167.636719 21.933594 168.6875 24.363281 168.347656 26.636719 C 168.054688 26.664062 167.730469 26.71875 167.410156 26.722656 C 165.179688 26.730469 162.949219 26.722656 160.71875 26.730469 C 160.390625 26.730469 160.0625 26.757812 159.617188 26.78125 C 159.617188 27.078125 159.585938 27.316406 159.621094 27.546875 C 159.890625 29.15625 161.308594 30.410156 162.941406 30.429688 C 163.886719 30.4375 164.835938 30.347656 165.777344 30.308594 C 166.109375 30.296875 166.441406 30.304688 166.886719 30.304688 "/>
<path style=" stroke:none;fill-rule:nonzero;fill:rgb(35.281372%,62.957764%,86.505127%);fill-opacity:1;" d="M 127.882812 26.054688 C 127.828125 26.042969 127.773438 26.03125 127.722656 26.019531 C 127.722656 25.714844 127.746094 25.40625 127.71875 25.101562 C 127.597656 23.773438 126.65625 22.082031 124.496094 21.953125 C 122.761719 21.847656 121.484375 22.625 120.945312 24.355469 C 120.589844 25.515625 120.621094 26.664062 120.96875 27.808594 C 121.351562 29.066406 122.519531 29.996094 123.777344 30.097656 C 125.492188 30.234375 126.6875 29.667969 127.285156 28.28125 C 127.589844 27.582031 127.6875 26.800781 127.882812 26.054688 Z M 118.574219 26.042969 C 118.683594 25.355469 118.75 24.660156 118.90625 23.988281 C 119.167969 22.871094 119.839844 22.011719 120.808594 21.433594 C 122.886719 20.183594 125.082031 20.136719 127.21875 21.15625 C 129.449219 22.222656 130.214844 24.554688 129.8125 27.171875 C 129.363281 30.09375 127.210938 31.386719 124.679688 31.574219 C 123.941406 31.628906 123.164062 31.539062 122.441406 31.371094 C 120.226562 30.859375 118.757812 29.007812 118.667969 26.726562 C 118.660156 26.503906 118.667969 26.277344 118.667969 26.054688 C 118.636719 26.050781 118.605469 26.046875 118.574219 26.042969 "/>
<g clip-path="url(#clip3)" clip-rule="nonzero">
<path style=" stroke:none;fill-rule:nonzero;fill:rgb(35.281372%,62.957764%,86.505127%);fill-opacity:1;" d="M 94.832031 35.25 C 96.390625 34.746094 97.363281 33.867188 97.820312 32.414062 C 97.488281 32.023438 97.121094 31.644531 96.808594 31.226562 C 96.023438 30.183594 95.519531 28.988281 95.222656 27.738281 C 94.722656 25.625 94.335938 23.484375 93.90625 21.351562 C 93.878906 21.199219 93.925781 21.027344 93.941406 20.792969 C 94.59375 20.792969 95.214844 20.792969 95.898438 20.792969 C 96.292969 22.386719 96.632812 23.964844 97.09375 25.507812 C 97.550781 27.050781 98.128906 28.558594 98.746094 30.074219 C 100.421875 27.046875 100.890625 23.65625 101.949219 20.441406 C 102.597656 20.441406 103.171875 20.441406 103.84375 20.441406 C 103.769531 20.746094 103.734375 20.984375 103.660156 21.210938 C 102.511719 24.648438 101.378906 28.09375 100.183594 31.519531 C 99.863281 32.429688 99.398438 33.3125 98.886719 34.132812 C 98.027344 35.511719 96.367188 35.996094 94.832031 35.25 "/>
</g>
<path style=" stroke:none;fill-rule:nonzero;fill:rgb(35.281372%,62.957764%,86.505127%);fill-opacity:1;" d="M 78.210938 29.839844 C 78.28125 30.335938 78.347656 30.796875 78.421875 31.332031 C 78.148438 31.421875 77.921875 31.558594 77.691406 31.558594 C 75.992188 31.5625 74.28125 31.632812 72.589844 31.503906 C 70.824219 31.375 69.496094 30.417969 68.710938 28.8125 C 67.476562 26.292969 67.355469 23.699219 68.441406 21.113281 C 69.324219 19.007812 71.125 18.082031 73.285156 17.925781 C 74.640625 17.832031 76.015625 18.011719 77.378906 18.078125 C 77.480469 18.085938 77.578125 18.167969 77.714844 18.230469 C 77.714844 18.722656 77.714844 19.210938 77.714844 19.757812 C 76.835938 19.660156 76.015625 19.5625 75.195312 19.484375 C 74.75 19.441406 74.300781 19.402344 73.855469 19.402344 C 71.539062 19.398438 70.078125 20.597656 69.605469 22.863281 C 69.332031 24.199219 69.40625 25.519531 69.671875 26.851562 C 70.023438 28.617188 71.636719 30.25 73.753906 30.105469 C 74.972656 30.019531 76.195312 29.925781 77.417969 29.839844 C 77.660156 29.824219 77.902344 29.839844 78.210938 29.839844 "/>
<path style=" stroke:none;fill-rule:nonzero;fill:rgb(35.281372%,62.957764%,86.505127%);fill-opacity:1;" d="M 86.5625 22.140625 C 86.085938 22.070312 85.683594 22.011719 85.214844 21.941406 C 85.214844 21.511719 85.214844 21.117188 85.214844 20.683594 C 85.679688 20.613281 86.082031 20.550781 86.628906 20.46875 C 86.628906 19.359375 86.628906 18.261719 86.628906 17.089844 C 87.34375 17.089844 87.910156 17.089844 88.628906 17.089844 C 88.628906 18.214844 88.628906 19.3125 88.628906 20.476562 C 89.363281 20.546875 89.957031 20.601562 90.613281 20.660156 C 90.613281 21.113281 90.613281 21.511719 90.613281 21.976562 C 89.976562 22.019531 89.40625 22.058594 88.75 22.101562 C 88.714844 22.4375 88.660156 22.730469 88.65625 23.027344 C 88.648438 24.644531 88.648438 26.265625 88.65625 27.886719 C 88.664062 29.304688 89.285156 29.960938 90.714844 30.09375 C 90.933594 30.117188 91.152344 30.140625 91.460938 30.171875 C 91.546875 30.628906 91.628906 31.074219 91.703125 31.492188 C 89.347656 32.511719 86.695312 31.640625 86.652344 28.671875 C 86.628906 26.828125 86.648438 24.984375 86.636719 23.140625 C 86.632812 22.8125 86.589844 22.488281 86.5625 22.140625 "/>
<path style=" stroke:none;fill-rule:nonzero;fill:rgb(35.281372%,62.957764%,86.505127%);fill-opacity:1;" d="M 16.953125 4.613281 C 18.644531 4.621094 19.957031 5.917969 19.929688 7.558594 C 19.90625 9.214844 18.574219 10.515625 16.925781 10.492188 C 15.261719 10.46875 13.902344 9.148438 13.980469 7.496094 C 14.070312 5.679688 15.503906 4.535156 16.953125 4.613281 "/>
<path style=" stroke:none;fill-rule:nonzero;fill:rgb(35.281372%,62.957764%,86.505127%);fill-opacity:1;" d="M 23.816406 4.613281 C 25.464844 4.617188 26.765625 5.921875 26.785156 7.589844 C 26.804688 9.140625 25.441406 10.476562 23.824219 10.492188 C 22.148438 10.507812 20.792969 9.148438 20.8125 7.464844 C 20.832031 5.910156 22.203125 4.609375 23.816406 4.613281 "/>
<path style=" stroke:none;fill-rule:nonzero;fill:rgb(35.281372%,62.957764%,86.505127%);fill-opacity:1;" d="M 40.414062 7.519531 C 40.414062 9.230469 39.152344 10.503906 37.46875 10.492188 C 35.820312 10.484375 34.542969 9.210938 34.53125 7.574219 C 34.519531 5.894531 35.804688 4.648438 37.507812 4.605469 C 38.894531 4.566406 40.546875 5.816406 40.414062 7.519531 "/>
<path style=" stroke:none;fill-rule:nonzero;fill:rgb(35.281372%,62.957764%,86.505127%);fill-opacity:1;" d="M 30.699219 4.613281 C 32.308594 4.625 33.628906 5.949219 33.625 7.554688 C 33.621094 9.175781 32.25 10.507812 30.59375 10.488281 C 28.960938 10.472656 27.636719 9.09375 27.664062 7.445312 C 27.691406 5.890625 29.074219 4.601562 30.699219 4.613281 "/>
<path style=" stroke:none;fill-rule:nonzero;fill:rgb(35.281372%,62.957764%,86.505127%);fill-opacity:1;" d="M 82.609375 31.214844 C 82.0625 31.214844 81.496094 31.214844 80.949219 31.214844 C 80.714844 30.492188 80.691406 21.667969 80.921875 20.777344 C 81.464844 20.777344 82.03125 20.777344 82.585938 20.777344 C 82.84375 21.429688 82.875 30.363281 82.609375 31.214844 "/>
<path style=" stroke:none;fill-rule:nonzero;fill:rgb(35.281372%,62.957764%,86.505127%);fill-opacity:1;" d="M 29.574219 3.226562 C 29.042969 3.269531 28.601562 3.304688 28.089844 3.347656 C 28.027344 3.855469 27.96875 4.335938 27.902344 4.890625 C 27.414062 4.890625 26.957031 4.890625 26.402344 4.890625 C 26.339844 4.410156 26.277344 3.929688 26.207031 3.367188 C 25.683594 3.316406 25.171875 3.269531 24.582031 3.214844 C 24.582031 2.699219 24.582031 2.21875 24.582031 1.679688 C 25.148438 1.628906 25.660156 1.582031 26.222656 1.53125 C 26.277344 1.007812 26.324219 0.546875 26.382812 0 C 26.886719 0 27.363281 0 27.902344 0 C 27.953125 0.5 28.003906 0.960938 28.058594 1.507812 C 28.546875 1.5625 29.027344 1.621094 29.574219 1.6875 C 29.574219 2.210938 29.574219 2.707031 29.574219 3.226562 "/>
<path style=" stroke:none;fill-rule:nonzero;fill:rgb(35.281372%,62.957764%,86.505127%);fill-opacity:1;" d="M 82.707031 18.605469 C 82.035156 18.605469 81.46875 18.605469 80.835938 18.605469 C 80.835938 17.933594 80.835938 17.339844 80.835938 16.648438 C 81.457031 16.648438 82.039062 16.648438 82.707031 16.648438 C 82.707031 17.304688 82.707031 17.898438 82.707031 18.605469 "/>
</g>
</svg>

<svg xmlns="http://www.w3.org/2000/svg" width="176pt" height="35.6pt" viewBox="0 0 176 35.6"><defs><clipPath id="a"><path d="M132 20h11v15.602h-11Zm0 0"/></clipPath><clipPath id="b"><path d="M145 20h11v15.602h-11Zm0 0"/></clipPath><clipPath id="c"><path d="M93 20h11v15.602H93Zm0 0"/></clipPath></defs><path d="M0 17.871h5.105c.196 1.55-.015 3.055.149 4.73.34-.28.57-.449.773-.648 1.16-1.129 2.328-2.254 3.461-3.41.48-.492 1-.734 1.7-.711 1.335.04 2.671.012 4.058.105-1.82 2.051-3.809 3.895-5.734 5.926 2.34 2.504 4.812 4.774 7.21 7.121.063-.02.13-.039.192-.062V18.066c.738-.261 4.223-.312 5.273-.097.028.32.083.672.086 1.02.004 2.597 0 5.19.004 7.788 0 .328.028.66.051 1.11 2.762.148 5.485-.024 8.277.101v3.27c-.632.219-18.683.316-20.52.101-1.51-1.504-3.085-3.074-4.66-4.64-.07.015-.136.035-.206.054v4.641L0 31.45zM176 21.895c-1.79.074-1.953.109-2.594.578-.402 3.054-.445 6.168-.426 9.367h-1.925V20.383H176zM49.043 22.25c-1.078 3.031-2.16 6.059-3.254 9.125h-4.937c-1.059-2.98-2.13-5.977-3.196-8.977l-.246.047v8.934c-1.762.101-3.418.062-5.039.027-.223-.695-.281-12.273-.101-13.36.574-.241 7.273-.32 8.52-.07.784 2.266 1.593 4.598 2.401 6.93l.211.024 2.516-7.067c2.82-.043 5.617-.011 8.492-.015v13.547c-1.668.078-3.32.05-5.047.011-.175-1.601-.058-3.129-.082-4.652-.02-1.488-.004-2.98-.004-4.469zM16.984 14.758v-3.465c.305-.035.594-.094.887-.094q9.167-.012 18.332 0c.352 0 .703.074 1.121.121v3.399c-.293.035-.586.101-.875.101q-9.293.012-18.582.012c-.273 0-.543-.043-.883-.074" style="stroke:none;fill-rule:nonzero;fill:#5aa1dd;fill-opacity:1"/><g clip-path="url(#a)"><path d="M134.328 30.27c1.086 0 2.059.015 3.031-.004 1.09-.024 1.946-.532 2.493-1.453.996-1.68 1.043-3.446.265-5.22-.351-.804-.953-1.41-1.847-1.554-.708-.117-1.438-.121-2.16-.144-.575-.016-1.145.011-1.782.02zm.07 1.32v3.777h-2.066v-14.87c.219-.052.402-.134.582-.13 1.899.047 3.797.086 5.691.172 1.473.07 2.512.914 3.22 2.121 1.152 1.969 1.195 4.07.292 6.117-.773 1.754-2.304 2.614-4.176 2.805-.8.082-1.617.012-2.425.008z" style="stroke:none;fill-rule:nonzero;fill:#5aa1dd;fill-opacity:1"/></g><g clip-path="url(#b)"><path d="M147.195 30.414c1.364 0 2.563.066 3.746-.027.735-.055 1.34-.535 1.758-1.164 1.09-1.645 1.098-3.414.465-5.2-.25-.714-.734-1.328-1.48-1.625-1.399-.546-2.832-.27-4.332-.285-.274 2.817-.13 5.504-.157 8.301m-1.742-9.797c1.512 0 2.984-.004 4.457.004.39.004.778.094 1.168.09 1.832-.012 3.074.953 3.887 2.469.867 1.625.957 3.37.418 5.125-.637 2.074-2.535 3.457-4.723 3.484-.781.012-1.562-.008-2.344-.004-.273 0-.546.027-.957.047-.007.656-.015 1.258-.02 1.86-.003.601-.003 1.21-.003 1.878h-1.832c-.25-.633-.305-13.945-.05-14.953" style="stroke:none;fill-rule:nonzero;fill:#5aa1dd;fill-opacity:1"/></g><path d="M116.176 31.234h-1.89c-.04-.406-.102-.757-.106-1.109-.012-1.871-.055-3.742.007-5.613.051-1.563-1.003-2.54-2.488-2.473-.969.043-1.945.008-3 .008-.043.406-.101.726-.105 1.047-.008 2.375 0 4.75-.008 7.125 0 .324-.055.648-.09 1.027h-1.851c-.235-.691-.274-13.547-.04-14.484h1.97v3.414c1.214.07 2.296.094 3.366.21.774.087 1.551.231 2.29.466 1.144.363 1.863 1.199 1.914 2.398.101 2.508.109 5.023.148 7.531.004.133-.066.262-.117.453M159.766 24.902c.793.239 5.8.207 6.422-.043.128-1.882-1.56-2.922-3.227-2.918-1.914.008-3.316 1.34-3.195 2.961m7.12 5.403c.094.312.173.566.278.925-.46.196-.848.426-1.262.516-1.43.317-2.882.32-4.316.067-2.484-.438-3.926-2.286-4.172-4.782a7.4 7.4 0 0 1 .387-3.133c.68-1.98 2.453-3.3 4.547-3.363 1.086-.035 2.164-.043 3.199.434 2.09.965 3.14 3.394 2.8 5.668-.292.027-.617.082-.937.086-2.23.007-4.46 0-6.691.007-.328 0-.656.028-1.102.051 0 .297-.031.535.004.766.27 1.61 1.688 2.863 3.32 2.883.946.008 1.895-.082 2.836-.121.332-.012.664-.004 1.11-.004M127.883 26.055l-.16-.035c0-.305.023-.614-.004-.918-.121-1.329-1.063-3.02-3.223-3.149-1.734-.105-3.012.672-3.55 2.402-.356 1.16-.325 2.31.023 3.454.383 1.257 1.55 2.187 2.808 2.289 1.715.136 2.91-.43 3.508-1.817.305-.699.403-1.48.598-2.226m-9.309-.012c.11-.688.176-1.383.332-2.055.262-1.117.934-1.976 1.903-2.554 2.078-1.25 4.273-1.297 6.41-.278 2.23 1.067 2.996 3.399 2.594 6.016-.45 2.922-2.602 4.215-5.133 4.402-.739.055-1.516-.035-2.239-.203-2.214-.512-3.683-2.363-3.773-4.644-.008-.223 0-.45 0-.672z" style="stroke:none;fill-rule:nonzero;fill:#5aa1dd;fill-opacity:1"/><g clip-path="url(#c)"><path d="M94.832 35.25c1.559-.504 2.531-1.383 2.988-2.836-.332-.39-.699-.77-1.011-1.187-.786-1.043-1.29-2.239-1.586-3.489-.5-2.113-.887-4.254-1.317-6.386-.027-.153.02-.325.035-.559h1.957c.395 1.594.735 3.172 1.196 4.715.457 1.543 1.035 3.05 1.652 4.566 1.676-3.027 2.145-6.418 3.203-9.633h1.895c-.074.305-.11.543-.184.77-1.148 3.437-2.281 6.883-3.476 10.309-.32.91-.786 1.793-1.297 2.613-.86 1.379-2.52 1.863-4.055 1.117" style="stroke:none;fill-rule:nonzero;fill:#5aa1dd;fill-opacity:1"/></g><path d="M78.21 29.84c.071.496.138.957.212 1.492-.274.09-.5.227-.73.227-1.7.003-3.41.074-5.102-.055-1.766-.129-3.094-1.086-3.88-2.692-1.233-2.519-1.355-5.113-.269-7.699.883-2.105 2.684-3.031 4.844-3.187 1.356-.094 2.73.086 4.094.152.101.008.2.09.336.152v1.528c-.88-.098-1.7-.195-2.52-.274a14 14 0 0 0-1.34-.082c-2.316-.004-3.777 1.196-4.25 3.461-.273 1.336-.199 2.657.067 3.989.351 1.765 1.965 3.398 4.082 3.253 1.219-.085 2.441-.18 3.664-.265.242-.016.484 0 .793 0M86.563 22.14c-.477-.07-.88-.128-1.348-.199v-1.257c.465-.07.867-.133 1.414-.215v-3.38h2v3.388c.734.07 1.328.125 1.984.183v1.317c-.636.043-1.207.082-1.863.125-.035.335-.09.628-.094.925a504 504 0 0 0 0 4.86c.008 1.418.63 2.074 2.059 2.207.219.023.437.047.746.078.086.457.168.902.242 1.32-2.355 1.02-5.008.149-5.05-2.82-.024-1.844-.005-3.688-.016-5.531-.004-.328-.047-.653-.075-1M16.953 4.613c1.692.008 3.004 1.305 2.977 2.946a2.953 2.953 0 0 1-3.004 2.933c-1.664-.023-3.024-1.344-2.946-2.996.09-1.816 1.524-2.96 2.973-2.883M23.816 4.613c1.649.004 2.95 1.309 2.97 2.977.019 1.55-1.345 2.887-2.962 2.902a2.98 2.98 0 0 1-3.012-3.027c.02-1.555 1.391-2.856 3.004-2.852M40.414 7.52c0 1.71-1.262 2.984-2.945 2.972-1.649-.008-2.926-1.281-2.938-2.918-.011-1.68 1.274-2.926 2.977-2.969 1.387-.039 3.039 1.211 2.906 2.915M30.7 4.613c1.609.012 2.929 1.336 2.925 2.942-.004 1.62-1.375 2.953-3.031 2.933-1.633-.015-2.957-1.394-2.93-3.043.027-1.554 1.41-2.843 3.035-2.832M82.61 31.215h-1.66c-.235-.723-.259-9.547-.028-10.438h1.664c.258.653.289 9.586.023 10.438M29.574 3.227l-1.484.12c-.063.508-.121.989-.188 1.544h-1.5c-.062-.48-.125-.961-.195-1.524-.523-.05-1.035-.097-1.625-.152V1.68l1.64-.149.16-1.531h1.52c.051.5.102.96.157 1.508.488.054.968.113 1.515.18zM82.707 18.605h-1.871v-1.957h1.871z" style="stroke:none;fill-rule:nonzero;fill:#5aa1dd;fill-opacity:1"/></svg>
